X: 2746
T: Banks Of The Ilen, The
R: reel
M: 4/4
K: Dmajor
AG|FDFA df~f2|dfef dcAD|{G}EDFA df~f2|dcAF ~G3E|
{G}EDFA d2 z1A|dfef dcAD|{G}EDFA df~f2|dcAF G2zg|
|:~f3a ~g3e|~a3g fdde|~f3a (3gag fg|azfa dg~g2|
af~f2 ge~e2|fzef dcAD|{G}EDFA dfec|1 dcAF G2zg:|2 dcAF ~G3E||

